icons/4x-playback-speed-24.svg

<svg id="icons" xmlns="http://www.w3.org/2000/svg" viewBox="0 0 24 24"><path d="M11,21H10V16H1.00486L11,2.96774V15h3v1H11ZM2.91992,15H10V5.55957ZM22.68868,9,20.5,11.69552,18.31132,9H17.00489l2.84189,3.5L17.00489,16h1.30643L20.5,13.30448,22.68868,16h1.30643l-2.84189-3.5L23.99511,9Z"/><path fill="none" d="M0 0h24v24H0z"/></svg>

<svg xmlns="http://www.w3.org/2000/svg" viewBox="0 0 24 24"><path d="M11 21h-1v-5H1.005L11 2.968V15h3v1h-3zm-8.08-6H10V5.56zm19.769-6L20.5 11.696 18.311 9h-1.306l2.842 3.5-2.842 3.5h1.306l2.189-2.696L22.689 16h1.306l-2.842-3.5L23.995 9z"/><path fill="none" d="M0 0h24v24H0z"/></svg>
